img/sm/douyin.svg

<?xml version="1.0" encoding="UTF-8"?>
<svg width="120px" height="120px" viewBox="0 0 120 120" version="1.1" xmlns="http://www.w3.org/2000/svg" xmlns:xlink="http://www.w3.org/1999/xlink">
    <!-- Generator: Sketch 53.2 (72643) - https://sketchapp.com -->
    <title>Combined Shape</title>
    <desc>Created with Sketch.</desc>
    <g id="Page-1" stroke="none" stroke-width="1" fill="none" fill-rule="evenodd">
        <path d="M32.048565,5.81062697e-15 L87.951435,1.29480038e-15 C99.0954192,-7.52316311e-16 103.136497,1.16032014 107.210571,3.3391588 C111.284645,5.51799746 114.482003,8.71535463 116.660841,12.7894287 C118.83968,16.8635028 120,20.9045808 120,32.048565 L120,87.951435 C120,99.0954192 118.83968,103.136497 116.660841,107.210571 C114.482003,111.284645 111.284645,114.482003 107.210571,116.660841 C103.136497,118.83968 99.0954192,120 87.951435,120 L32.048565,120 C20.9045808,120 16.8635028,118.83968 12.7894287,116.660841 C8.71535463,114.482003 5.51799746,111.284645 3.3391588,107.210571 C1.16032014,103.136497 7.60697156e-15,99.0954192 6.2422271e-15,87.951435 L8.63200256e-16,32.048565 C-5.01544207e-16,20.9045808 1.16032014,16.8635028 3.3391588,12.7894287 C5.51799746,8.71535463 8.71535463,5.51799746 12.7894287,3.3391588 C16.8635028,1.16032014 20.9045808,7.85774367e-15 32.048565,5.81062697e-15 Z M62.5,15 C62.5,46.8326823 62.5,67.1660156 62.5,76 C62.5,85 55,89 49,89 C44,89 37,84.7382558 37,76 C37,65 46,63 53,63 C53,56 53,54 53,48 C29,48 21,65 21,76 C21,87 29,104 49,104 C70,104 78,91 78,80 C78,69 78,52 78,45 C82,49 89,51.3333333 99,52 C99,46.6666667 99,42.3333333 99,39 C85,36.3333333 78,28.3333333 78,15 L62.5,15 Z" id="Combined-Shape" fill="#DCDCDC" fill-rule="nonzero"></path>
    </g>
</svg>

<svg width="120" height="120" xmlns="http://www.w3.org/2000/svg"><path d="M32.049 0H87.95c11.144 0 15.185 1.16 19.26 3.34 4.074 2.178 7.271 5.375 9.45 9.45C118.84 16.863 120 20.904 120 32.048V87.95c0 11.144-1.16 15.185-3.34 19.26-2.178 4.074-5.375 7.271-9.45 9.45-4.074 2.179-8.115 3.339-19.259 3.339H32.05c-11.144 0-15.185-1.16-19.26-3.34-4.074-2.178-7.271-5.375-9.45-9.45C1.16 103.137 0 99.096 0 87.952V32.05c0-11.144 1.16-15.185 3.34-19.26 2.178-4.074 5.375-7.271 9.45-9.45C16.863 1.16 20.904 0 32.048 0zM62.5 15v61c0 9-7.5 13-13.5 13-5 0-12-4.262-12-13 0-11 9-13 16-13V48c-24 0-32 17-32 28s8 28 28 28c21 0 29-13 29-24V45c4 4 11 6.333 21 7V39c-14-2.667-21-10.667-21-24H62.5z" fill="#DCDCDC" fill-rule="nonzero"/></svg>
